!!!OTL: WELLE GROSS WUNDER SCHAUEN WILL
!!!ARE: Europa, Mitteleuropa, Deutschland
!!!SCT: F0888
!!!YEM: Copyright 1995, estate of Helmut Schaffrath.
**kern
*ICvox
*Ivox
*M3/4
*k[]
*C:
{8G
=1
8c
8B
4c
4d
=2
8B
8A
4G}
{4c
=3
8g
8g
8f
8e
4c
=4
4c
4d
8r}
{8c
=5
8e
8f
4g
4c
=6
8d
8e
4f}
{4d
=7
8e
8c
4d
4c
=8
4B
4c
8r}
==
!!!AGN: erzaehlendes Volks - Lied, Ballade, Tannhaeuser
!!!ONB: ESAC (Essen Associative Code) Database: FINK
!!!AMT: simple triple
!!!AIN: vox
!!!EED: Helmut Schaffrath
!!!EEV: 1.0
*-
